X: 20686
T: Johnnie Finlay
R: reel
M: 4/4
K: Dmajor
a|f>d d/d/d d2 AB|=c2 G=F ECCE|F>D D/D/D D2 fg|afge dage|
f>d d/d/d d2 AB|=c2 G=F ECCE|F>D D/D/D D2 fg|afge d2||
e>f|g>e e/e/e e2 a>g|f>d d/d/d d2 ef|gfed cded|c>A A/A/A A2 {B}c2|
B>G G/G/G G2 dB|AFDF AdcB|ABcd efgb|afge d2||

